X:2753
T:I Buried My Wife & Danced on her Grave
O:England
M:6/8
L:1/8
S:Martin Hayes
K:D Mixolydian
DED F2G|AdB cAF|~G3 BAG|FAF GEA|
DED F2G|AdB cAF|~G3 BAG|AFD D3:|
d2e fed|faf gfe|d2e fed|d^cA dcA|
d2e fed|faf gfe|d2A BAG|AFD D3:|


